X: 1046
T: Five Little Ducks
B: kids songs
M:4/4
L:1/4
Q: 1/4=100
K:C
V:1 
"C"GC/C/cB | "F"A/A/A"C"G2| GC/C/FE|"G"EDD2|
"C"GC/C/cB | "F"AAG3/2C/|"C" GC"F"FE/E/|"G"DD"C"C2||
W: Five little ducks went swimming one day
W: Over the hills and far away
W: The little duck said, "Quack, quack, quack, quack"
W: And only four little ducks came back
W: 
W: Four little ducks went swimming one day
W: Over the hills and far away
W: The little duck said, "Quack, quack, quack, quack"
W: And only three little ducks came back
W: 
W: Three little ducks went swimming one day
W: Over the hills and far away
W: The little duck said, "Quack, quack, quack, quack"
W: And only two little ducks came back
W: 
W: Two little ducks went swimming one day
W: Over the hills and far away
W: The little duck said, "Quack, quack, quack, quack"
W: And only one little duck came back
W: 
W: One little duck went swimming one day
W: Over the hills and far away
W: The little duck said, "Quack, quack, quack, quack"
W: And then no more little ducks came back
% abcbook-tune_id 62829c77e22a41909e16b0d3


% abcbook-boost 0
% abcbook-tablature 
% abcbook-transpose 
% abcbook-lastupdated 1653910500558
% abcbook-soundfonts 
% abcbook-repeats 1


